!!!!SEGMENT: pl-wtm--r-2018--002_smietanski-emil-wladyslaw--souvenir-de-vienne-no-3.krn
!!!cenid: 18xx:1969
!!!COM: Śmietański, Emil Władysław
!!!COM-rismid: pe50041781
!!!CDT: 1845-1886
!!!CNT: Polish
!!!OTL: Souvenir de Vienne – No 3
!!!PDT:
!!!AGN: Secular; Vienna
!!!SMS-siglum: PL-Wtm
!!!SMS-shelfmark: R 2018
!!!SMS-shelfwork: 002 W
!!!SMS-variant:
!!!SMS-altvar:
!!!NIFC-rismid: 1001112988
!!!URL-scan: http://repozytorium.nifc.pl/skany/pl-wtm-nut--r2018
!!!ONB-nifc: UWAGA: w zbiorze Valse de Concert No. 2 (001) i Valse de Concert No. 3 (002)
**kern	**kern	**dynam
*part2	*part1	*part1
*staff2	*staff1	*
*I"Piano	*I"Fortepian	*
*	*I'pf	*
*clefF4	*clefG2	*
*k[b-e-a-]	*k[b-e-a-]	*
*M3/4	*M3/4	*
!LO:TX:a:t=ms.	!LO:TX:i:a:t=Valse de Concert N3	!
8f\L 8B-\	4ryy	.
8f\J 8B-\	.	.
=1	=1	=1
!LO:TX:a:t=distintamente.	!	!
4f\ 4B-\	2.ryy	.
4BBB-/	.	.
8b-\L 8B-\	.	.
8b-\J 8B-\	.	.
=2	=2	=2
2.b-\ 2.B-\	2.ryy	.
=3	=3	=3
4e-\ 4B-\	2.ryy	.
4BBB-/	.	.
8b-\L 8B-\	.	.
8b-\J 8B-\	.	.
=4	=4	=4
2.b-\ 2.B-\	2.ryy	.
=5	=5	=5
4d\ 4B-\	2.ryy	.
4BBB-/	.	.
8b-\L 8B-\	.	.
8b-\J 8B-\	.	.
=6	=6	=6
4c\ 4B-\	2.ryy	.
4BBB-/	.	.
8b-\L 8B-\	.	.
8b-\J 8B-\	.	.
=7	=7	=7
4B-/	2ryy	.
4BBB-/	.	.
!	!LO:TX:a:t=md	!LO:DY:a
4r	8An</L	mf
.	8B-</J	.
=8	=8	=8
4r	8A-X</L	.
.	8B-</J	.
4r	8G</L	.
.	8B-</J	.
4r	8F</L	.
!	!LO:TX:t=P:problem:ozdobna kreska taktowa koniec wstępu	!
.	8B-</J	.
!!LO:LB:g=original
=9	=9	=9
!	!LO:TX:a:t=md	!
4EE-\	(<8G</L	.
.	8A-</J)	.
!LO:TX:a:t=ms	!	!
4e->\ 4B->\	(<8A-</L	.
.	8An</J)	.
4g>\ 4e->\	(<8A</L	.
.	8B-</J)	.
=10	=10	=10
4GG\	(<8B-</L	.
.	8c</J)	.
!LO:TX:a:t=ms.	!	!
4g>\ 4e->\	(<8c</L	.
.	8d</J)	.
4b->\ 4g>\	(<8d</L	.
.	8e-</J)	.
=11	=11	=11
4FF\	(<8e-</L	.
.	8d</J)	.
!LO:TX:a:t=ms.	!	!
8b->\L 8a->\ 8f>~\	(<8d</L	.
8en>\J	8c#X</J)	.
8b->\L 8a->\ 8e>\	(<8c#</L	.
8e-X>\J	8cn</J)	.
=12	=12	=12
4BBB-\	4c<W</	.
!LO:TX:a:t=ms	!	!
4b->\ 4a->\ 4d>\	4B-</	.
4b->\ 4a->\ 4d>\	4B-</	.
=13	=13	=13
4FF\	(<8e-</L	.
.	8d</J)	.
8b->\L 8a->\ 8f>~\	(<8d</L	.
8en>\J	8c#X</J)	.
8b->\L 8a->\ 8e>\	(<8c#</L	.
8e-X>\J	8cn</J)	.
=14	=14	=14
4BBB-\	4c<W</	.
!LO:TX:a:t=ms	!	!
4b->\ 4a->\ 4d>\	4B-</	.
4b->\ 4a->\ 4d>\	4B-</	.
=15	=15	=15
4GG\	<(8c</L	.
.	8Bn</J)	.
!LO:TX:a:t=ms	!	!
8g>\L 8d>~\	(<8B</L	.
8c#X>\J	8B-X</J)	.
8g>\L 8c#>\	(<8B-</L	.
8cn>\J	8An</J)	.
!!LO:LB:g=original
=16	=16	=16
4BB-\	(<8An</L	.
.	8A-X</J)	.
!LO:TX:a:t=ms	!	!
8d>\L 8Bn>\	(8A-</L	.
8B-X>\J	8G</J)	.
8d>\L 8B->\	(8G</L	.
8A->\J	8F</J)	.
=17	=17	=17
4EE-\	8G<'/L	.
.	8A-<'/J	.
!LO:TX:a:t=ms	!	!
4e->\ 4B->\	8A-<'/L	.
.	8An<'/J	.
4g>\ 4e->\	8A<'/L	.
.	8B-<'/J	.
=18	=18	=18
!	!LO:TX:b:t=staccato	!
4EEn\	8B-</L	.
.	8Bn</J	.
!LO:TX:a:t=ms	!	!
4en>\ 4B->\	8B</L	.
.	8c</J	.
4b->\ 4e>\	8c</L	.
.	8d-X</J	.
=19	=19	=19
4FF\	8d-X</L	.
.	8c</J	.
!LO:TX:a:t=ms	!	!
4f>\ 4B->\	8c</L	.
.	8Bn</J	.
4b->\ 4f>\	8B</L	.
.	8B-X</J	.
=20	=20	=20
4AA-\	4B-<W</	.
!LO:TX:a:t=ms.	!	!
4f>\ 4c>\	4A-</	.
4cc>\ 4f>\	4A-</	.
=21	=21	=21
4BB-\	8G</L	.
.	8A-</J	.
!LO:TX:a:t=ms.	!	!
4g>\ 4e->\	8A-</L	.
.	8An</J	.
4b->\ 4g>\	8A</L	.
.	8B-</J	.
=22	=22	=22
4BB-\	8B-</L	.
.	8Bn</J	.
!LO:TX:a:t=ms.	!	!
4a->\ 4d>\	8B</L	.
.	8c</J	.
4b->\ 4a->\	8c</L	.
.	8d</J	.
!!LO:LB:g=original
=23	=23	=23
!	!LO:TX:a:t=md	!
4EE-\	8e-</L	.
.	8G</J 8E-</	.
!LO:TX:a:t=ms	!	!
8G\	8ryy	.
!	!LO:TX:a:t=md	!
8ryy	8e-</ 8B-</	.
!LO:TX:a:t=ms	!	!
8g>\ 8e->\	8ryy	.
!	!LO:TX:a:t=md	!
8ryy	8b-/ 8e-/	.
=24	=24	=24
2r	8ee-/ 8b-/	.
.	8r	.
.	4r	.
4r	4r	.
=25:|!|:	=25:|!|:	=25:|!|:
4BB-\ 4BBB-\	(4bb-\ 4dd\ 4b-^^\	ff
8B-\L 8BB-^^\	8b-\ 8d\)|	.
8An\ 8AAn^^\	8r	.
8G\ 8GG^^\	8b-\L 8d\ 8B-\	.
8F\J 8FF^^\	8an\J	.
=26	=26	=26
8E-\L 8EE-'\	4b-\ 4g\ 4B-\	.
8D\ 8DD'\	.	.
8C\ 8CC'\	(8ee-\L 8g\ 8e-\	.
8BB-\ 8BBB-\	8dd\J)	.
8AAn\ 8AAAn\	(8cc\L 8g\ 8e-\	.
8GG\J 8GGG\	8b-\J)	.
=27	=27	=27
4FF/ 4FFF/	8an\L 8e-\	.
.	8cc\ 8g\	.
4An\ 4E-\	8ee-\ 8a\	.
.	8gg\ 8cc\	.
4e-\ 4A\	8aan\ 8ee-\	.
.	8eee-\J 8gg\	.
=28	=28	=28
4FF/	2eee-\ 2gg^^\	.
4An\ 4E-\	.	.
4e-\ 4A\	4aan\ 4ee-\	.
=29	=29	=29
4FF\	8eee-\L 8aan\	.
.	8ccc\ 8gg\	.
4An\ 4E-\	8aa\ 8ee-\	.
.	8gg\J 8cc\	.
4f^^\	4ff\ 4an\	.
!!LO:LB:g=original
=30	=30	=30
4FF\	8eee-\L 8aan\	.
.	8ccc\ 8gg\	.
4An\ 4E-\	8aa\ 8ee-\	.
.	8gg\J 8cc\	.
4f^^\	4ff\ 4an\	.
=31	=31	=31
4BBB-/	8dddn\L 8bb-\	.
.	8ccc\ 8ff\	.
8G\L 8GG^^\	8bb-\ 8ddn\	.
8An\ 8AAn^^\	8ff\ 8cc\	.
8B-\ 8BB-^^\	8dd\ 8b-\	.
8A\J 8AA^^\	8cc\J 8f\	.
=32	=32	=32
!	!LO:TX:t=P:problem:mixed beam	!
4B-\ 4BB-\	8b-/L 8d/	.
.	8f/ 8c/	.
8GG\L 8GGG\	8d<\ 8B-<\	.
8AAn\ 8AAAn\	8c<\ 8F<\	.
8BB-\ 8BBB-\	8B-<\ 8D<\	.
8AA\J 8AAA\	8F<\J 8C<\	.
=33	=33	=33
4BBB-\ 4BBBB-\	(4B-/ 4D/ 4BB-/	.
8B-\L 8BB-\	8b-\ 8d\)|	.
8An\ 8AAn\	8r	.
8G\ 8GG\	8b-\L 8d\ 8B-\	.
8F\J 8FF\	8an\J	.
=34	=34	=34
8E-\L 8EE-\	4g\ 4e-\ 4B-\	.
8D\ 8DD\	.	.
8C\ 8CC\	8ee-\L 8g\ 8e-\	.
8BB-\ 8BBB-\	8dd\J	.
8AAn\ 8AAAn\	8cc\L 8g\ 8e-\	.
8GG\J 8GGG\	8b-\J	.
=35	=35	=35
4FF\ 4FFF\	8an\L 8e-\	.
.	8cc\ 8g\	.
4An\ 4E-\	8ee-\ 8a\	.
.	8gg\ 8cc\	.
4e-\ 4A\	8aan\ 8ee-\	.
.	8eee-\J 8gg\	.
=36	=36	=36
4FF\	2eee-\ 2gg\	.
4An\ 4E-\	.	.
4e-\ 4A\	4aan\ 4ee-\	.
!!LO:LB:g=original
=37	=37	=37
4FF\	8eee-\L 8aan\	.
.	8ccc\ 8gg\	.
4An\ 4E-\	8aa\ 8ee-\	.
.	8gg\J 8cc\	.
!LO:TX:b:t=es\nc	!	!
4e-\ 4c^^\	4ff\ 4an\	.
=38	=38	=38
4FF\	8eee-\L 8aan\	.
.	8ccc\ 8gg\	.
4An\ 4E-\	8aa\ 8ee-\	.
.	8gg\J 8cc\	.
4e-\ 4c\	4ff\ 4an\	.
=39	=39	=39
4BBB-\	8b-\L 8d\	.
.	8dd\ 8f\	<
4B-\ 4BB-\	8ff\ 8b-\	.
.	8bb-\J 8dd\	.
*	*8va	*
4BB-\ 4BBB-\	8ddd\L 8ff\	.
.	8fff\J 8bb-\	.
=40	=40	=40
4BBB-\ 4BBBB-\	4bbb-\ 4ddd\	.
*	*X8va	*
4r	4r	[
4r	4r	.
=41:|!	=41:|!	=41:|!
!	!LO:TX:a:t=md	!
4EE-\	8G</L	.
.	8A-</J	.
!LO:TX:a:t=ms.	!	!
4e->\ 4B->\	8A-</L	.
.	8An</J	.
4g>\ 4e->\	8A</L	.
.	8B-</J	.
=42	=42	=42
4GG\	8B-</L	.
.	8c</J	.
4g>\ 4e->\	8c</L	.
.	8d</J	.
4b->\ 4g>\	8d</L	.
.	8e-</J	.
!!LO:PB:g=original
=43	=43	=43
4FF\	8e-<\L	.
.	8d<\J	.
8b->\L 8a->\ 8f>\	8d<\L	.
8en>\J	8c#X<\J	.
8b->\L 8a->\ 8e>\	8c#<\L	.
8e-X>\J	8cn<\J	.
=44	=44	=44
4BBB-/	4c<W</	.
4b->\ 4a->\ 4d>\	4B-</	.
4b->\ 4a->\ 4d>\	4B-</	.
=45	=45	=45
4FF\	8e-</L	.
.	8d</J	.
8b->\L 8a->\ 8f>\	8d</L	.
8en>\J	8c#X</J	.
8b->\L 8a->\ 8e>\	8c#</L	.
8e-X>\J	8cn</J	.
=46	=46	=46
4BBB-\	4c<W</	.
4b->\ 4a->\ 4d>\	4B-</	.
4b->\ 4a->\ 4d>\	4B-</	.
=47	=47	=47
4GG\	8c</L	.
.	8Bn</J	.
8g>\L 8d>\	8B</L	.
8c#X>\J	8B-X</J	.
8g>\L 8c#>\	8B-</L	.
8cn>\J	8An</J	.
=48	=48	=48
4BB-\	8An</L	.
.	8A-X</J	.
8d>/L 8Bn>/	8A-</L	.
8B-X>/J	8G</J	.
8d>/L 8B->/	8G</L	.
8A->/J	8F</J	.
!!LO:LB:g=original
=49	=49	=49
4EE-\	8G</L	.
.	8A-</J	.
4e->\ 4B->\	8A-</L	.
.	8An</J	.
4g>\ 4e->\	8A</L	.
.	8B-</J	.
=50	=50	=50
4EEn\	8B-</L	.
.	8Bn</J	.
4en>\ 4B->\	8B</L	.
.	8c</J	.
4b->\ 4e>\	8c</L	.
.	8d-X</J	.
=51	=51	=51
4FF\	8d-X<\L	.
.	8c</J	.
4f>\ 4B->\	8c</L	.
.	8Bn</J	.
4b->\ 4f>\	8B</L	.
.	8B-X</J	.
=52	=52	=52
4AA-\	4B-<W</	.
4f>\ 4c>\	4A-</	.
4cc>\ 4f>\	4A-</	.
=53	=53	=53
4BB-\	8G</L	.
.	8A-</J	.
4g>\ 4e->\	8A-</L	.
.	8An</J	.
4b->\ 4g>\	8A</L	.
.	8B-</J	.
=54	=54	=54
4BB-\	8B-</L	.
.	8Bn</J	.
4a->\ 4d>\	8B</L	.
.	8c</J	.
4b->\ 4a->\	8c</L	.
.	8d</J	.
!!LO:LB:g=original
=55	=55	=55
4EE-/	8e-</L	.
.	8G</J	.
4r	8G</L 8E-</	.
.	8e-</J 8G</	.
!	!LO:TX:b:t=ral_len_tan_do:dur=4qe:ext=ut:ext2=u:problem:text with extention lines	!
4r	8g\L 8e-\	.
.	8ee-\J 8g\	.
=56	=56	=56
2r	4gg\ 4ee-\	.
.	4.ff\ 4.dd\	.
4r	.	.
.	8ee-\ 8cc\	.
=57||	=57||	=57||
4FF/	4ee-\ 4cc\	pp
4e-\	4a-\	.
4A-\ 4E-\	4dd\ 4bn\	.
=58	=58	=58
!	!LO:TX:b:t=espressivo.	!
4BBB-/	4ee-\ 4cc\	.
4B-\	4d\	.
4F\ 4D\	4cc\ 4a-\	.
=59	=59	=59
4EE-/	4cc\ 4g\	.
4B-\	4e-\	.
4G\ 4E-\	4b-\ 4g\	.
=60	=60	=60
2r	4bb-\ 4gg\	.
.	4.gg\ 4.ee-\	.
4r	.	.
.	8ee-\ 8cc\	.
=61	=61	=61
4FF\	4ee-\ 4cc\	.
4e-\	4a-\	.
4A-\ 4E-\	4dd\ 4bn\	.
!!LO:LB:g=original
=62	=62	=62
4BBB-/	4ee-\ 4cc\	.
4B-\	4d\	.
4F\ 4D\	4cc\ 4a-\	.
=63	=63	=63
4EE-/	4cc\ 4g\	.
4B-\	4e-\	.
4G\ 4E-\	4b-\ 4g\	.
=64	=64	=64
4EEn/	(4gg\ 4b-'\	pp
4g\ 4c\ 4B-\	4gg\ 4dd'\	.
4g\ 4d-X\ 4B-\	4gg\ 4dd-X'\)	.
=65	=65	=65
!	!LO:SIC:v:o:t=łuk i kropk nad dźwiękiem.fermata?	!
4FF/	4ff\ 4dd-X'\	.
4f\ 4Bn\ 4An\	4r	.
4f\ 4c\ 4A\	4ff\ 4cc'\	.
=66	=66	=66
4DDn/	(4ff\ 4a-'\	.
4f\ 4B-X\ 4A-X\	4ff\ 4cc'\	.
4f\ 4c-X\ 4A-\	4ff\ 4cc-X'\)	.
=67	=67	=67
!	!LO:SIC:v:o:t=łuk i kropk nad dźwiękiem.fermata?	!
4EE-/	4ee-\ 4cc-X'\	.
4e-\ 4An\ 4G\	4r	.
4e-\ 4B-\ 4G\	4ee-\ 4b-\	.
=68	=68	=68
4CC-X/	(4ee-\ 4cc-X'\	.
4e-\ 4A-\ 4G-X\	4ee-\ 4b-'\	.
4e-\ 4An\ 4G-\	4ee-\ 4an'\	.
=69	=69	=69
4BBB-/	4ee-\ 4b-\)	.
4B-\ 4G\	4b-\ 4g\	.
4e-\	4ee-\ 4cc\	.
!!LO:LB:g=original
=70	=70	=70
4BB-\	4dd\ 4cc-X\	.
4d\ 4A-\	4b-X\	.
4a-\ 4d\	4aa-\ 4dd\	.
=71	=71	=71
4EE-/	4ff#X\ 4dd\	.
4e-\ 4G\	4gg\ 4ee-\	.
4b-\ 4e-\	4eee-\ 4gg\	.
=72	=72	=72
2r	4gg\ 4ee-\	.
.	4.ff\ 4.dd\	.
4r	.	.
.	8ee-\ 8cc\	.
=73	=73	=73
4FF/	4ee-\ 4cc\	.
4e-\	4a-\	.
4A-\ 4E-\	4dd\ 4bn\	.
=74	=74	=74
.	32qqff/	.
4BBB-/	4ee-\ 4cc\	.
4c\	4d\	.
4A-\ 4BB-\	4cc\ 4a-\	.
=75	=75	=75
4EE-/	4cc\ 4g\	.
4B-\	4e-\	.
4G\ 4BB-\	4b-\ 4g\	.
=76	=76	=76
2r	4bb-\ 4gg\	.
.	4.gg\ 4.ee-\	.
4r	.	.
.	8ee-\ 8cc\	.
=77	=77	=77
4FF/	4ee-\ 4cc\	.
4e-\	4a-\	.
4A-\ 4E-\	4dd\ 4bn\	.
!!LO:LB:g=original
=78	=78	=78
.	32qqff/	.
4BBB-/	4ee-\ 4cc\	.
4c\	4d\	.
4A-\ 4BB-\	4cc\ 4a-\	.
=79	=79	=79
4EE-/	4cc\ 4g\	.
4B-\	4e-\	.
4G\ 4BB-\	4b-\ 4g\	.
=80	=80	=80
!	!LO:TX:b:t=dim-in-u-en-do:ext2=cd:problem:dynamics with extention lines	!LO:HP:t=diminuendo
4EEn/	(4gg\ 4b-'\	>
4g\ 4c\ 4B-\	4gg\ 4dd'\	.
4g\ 4d-X\ 4B-\	4gg\ 4dd-X'\)	.
=81	=81	=81
!	!LO:SIC:v:o:t=łuk i kropk nad dźwiękiem.fermata?	!
4FF/	4ff\ 4dd-X'\	.
4f\ 4Bn\ 4An\	4r	.
4f\ 4c\ 4A\	(4ff\ 4cc'\	.
=82	=82	=82
4DDn/	4ff\ 4a-'\	.
4f\ 4B-X\ 4A-X\	4ff\ 4cc'\	.
4f\ 4c-X\ 4A-\	4ff\ 4cc-X'\)	.
=83	=83	=83
!	!LO:SIC:v:o:t=łuk i kropk nad dźwiękiem.fermata?	!
4EE-/	4ee-\ 4cc-X'\	.
4e-\ 4An\ 4G\	4r	.
!	!LO:SIC:v:o:t=łuk i kropk nad dźwiękiem.fermata?	!
4e-\ 4B-\ 4G\	4ee-\ 4b-'\	.
=84	=84	=84
4CC-X/	(4ee-\ 4cc-X'\	.
4e-\ 4A-X\ 4G-X\	4ee-\ 4b-'\	.
4e-\ 4B--\ 4G-\	4ee-\ 4b--'\)	.
=85	=85	=85
!	!LO:TX:t=P:problem:♮ obok ♭	!
4BBB-/	4ee-\ 4bn-X\	.
4B-\ 4Gn\	4b-\ 4gn\	.
4e-\	4ee-\ 4cc\	]
!!LO:PB:g=original
=86	=86	=86
4BB-\	4dd\ 4bn\	.
4d\ 4A-\	4b-X\	.
4a-\ 4d\	4bb-\ 4dd\	.
=87	=87	=87
!	!LO:TX:b:t=estinto.	!
4EE-/	4ee-\ 4b-\	.
4r	4bb-\ 4ee-\	.
4r	4eee-\ 4bb-\	.
=88	=88	=88
*	*8va	*
4b-\ 4e-\ 4G\	4eeee-\ 4bbb-\ 4eee-\	.
*	*X8va	*
4r	4r	.
4r;	4r;	.
=89||	=89||	=89||
*k[bnenanf#c#g#d#a#]	*k[bnenanf#c#g#d#a#]	*
4BB/ 4BBB/	(4bb\ 4dd#\ 4b\	ff
8B\L 8BB\	8b\ 8d#\)	.
8A#\ 8AA#\	8r	.
8G#\ 8GG#\	8b\L 8d#\ 8B\	.
8F#\J 8FF#\	8a#\J	.
=90	=90	=90
8E\L 8EE\	4g#\ 4e\ 4B\	.
8D#\ 8DD#\	.	.
8C#\ 8CC#\	8ee\L 8g#\ 8e\	.
8BB\ 8BBB\	8dd#\	.
8AA#\ 8AAA#\	8cc#\ 8g#\ 8e\	.
8GG#\J 8GGG#\	8b\J	.
=91	=91	=91
4FF#\ 4FFF#\	8a#\L 8e\	.
.	8cc#\ 8g#\	.
4A#\ 4E\	8ee\ 8a#\	.
.	8gg#\ 8cc#\	.
4e\ 4A#\	8aa#\ 8ee\	.
.	8eee\J 8gg#\	.
!!LO:LB:g=original
=92	=92	=92
4FF#\	2eee\ 2gg#\	.
4A#\ 4E\	.	.
4e\ 4A#\	4aa#\ 4ee\	.
=93	=93	=93
4FF#\	8eee\L 8aa#\	.
.	8ccc#\ 8gg#\	.
4A#\ 4F#\ 4C#\	8aa#\ 8ee\	.
.	8gg#\J 8cc#\	.
!LO:TX:a:t=fis	!	!
4f#^^\	4ff#\ 4a#\	.
=94	=94	=94
4FF#\	8eee\L 8aa#\	.
.	8ccc#\ 8gg#\	.
4A#\ 4F#\ 4C#\	8aa#\ 8ee\	.
.	8gg#\J 8cc#\	.
4f#^^\	4ff#\ 4a#\	.
=95	=95	=95
4BBB/	8ddd#\L 8bb\	.
.	8ccc#\ 8ff#\	.
8G#\L 8GG#\	8bb\ 8dd#\	.
8A#\ 8AA#\	8ff#\ 8cc#\	.
8B\ 8BB\	8dd#\ 8b\	.
8A#\J 8AA#\	8cc#\J 8f#\	.
=96	=96	=96
!	!LO:TX:t=P:problem:mixed beam	!
4B\ 4BB\	8b/L 8d#/	.
.	8f#/ 8c#/	.
8GG#\L 8GGG#\	8d#/ 8B/	.
8AA#\ 8AAA#\	8c#<\ 8F#<\	.
8BB\ 8BBB\	8B<\ 8D#<\	.
8AA#\J 8AAA#\	8F#<\J 8C#<\	.
=97	=97	=97
4BBB\ 4BBBB\	(4B</ 4D#</ 4BB</	.
8B\L 8BB\	8b\ 8d#\)	.
8A#\ 8AA#\	8r	.
8G#\ 8GG#\	8b\L 8d#\ 8B\	.
8F#\J 8FF#\	8a#\J	.
!!LO:LB:g=original
=98	=98	=98
8E\L 8EE\	4g#\ 4e\ 4B\	.
8D#\ 8DD#\	.	.
8C#\ 8CC#\	8ee\L 8g#\ 8e\	.
8BB\ 8BBB\	8dd#\	.
8AA#\ 8AAA#\	8cc#\ 8g#\ 8e\	.
8GG#\J 8GGG#\	8b\J	.
=99	=99	=99
4FF#/ 4FFF#/	8a#\L 8e\	.
.	8cc#\ 8g#\	.
4A#\ 4E\	8ee\ 8a#\	.
.	8gg#\ 8cc#\	.
4e\ 4A#\	8aa#\ 8ee\	.
.	8eee\J 8gg#\	.
=100	=100	=100
4FF#\	2eee\ 2gg#\	.
4A#\ 4E\	.	.
4e\ 4A#\	4aa#\ 4ee\	.
=101	=101	=101
4FF#\	8eee\L 8aa#\	.
.	8ccc#\ 8gg#\	.
4A#\ 4F#\ 4C#\	8aa#\ 8ee\	.
.	8gg#\J 8cc#\	.
4f#^^\	4ff#\ 4a#\	.
=102	=102	=102
4FF#\	8eee\L 8aa#\	.
.	8ccc#\ 8gg#\	.
4A#\ 4F#\ 4C#\	8aa#\ 8ee\	.
.	8gg#\J 8cc#\	.
4f#^^\	4ff#\ 4a#\	.
=103	=103	=103
4BBB/	8b\L 8d#\	.
.	8dd#\ 8f#\	.
4B\ 4BB\	8ff#\ 8b\	.
.	8bb\ 8dd#\	.
4BB\ 4BBB\	8ddd#\ 8ff#\	.
.	8fff#\J 8bb\	.
=104	=104	=104
4BBB/ 4BBBB/	4bbb\ 4ddd#\	.
4r	4r	.
4r	4r	.
!!LO:LB:g=original
=105||	=105||	=105||
*k[fncngndnanb-e-a-]	*k[fncngndnanb-e-a-]	*
4EE-/	8gg\L 8ee-\ 8g\	f <
.	8aa-\J 8a-\	.
4e-\ 4B-\ 4G\	8aa-\L 8a-\	.
.	8aan\J 8an\	.
4g\ 4e-\ 4B-\	8aa\L 8a\	.
.	8bb-\J 8b-\	.
=106	=106	=106
4GG/	8bb-\L 8b-\	.
.	8ccc\J 8cc\	.
*clefG2	*	*
4g/ 4e-/ 4B-/	8ccc\L 8cc\	.
.	8ddd\J 8dd\	.
4b-/ 4g/ 4e-/	8ddd\L 8dd\	.
.	8eee-\J 8ee-\	[[
*clefF4	*	*
=107	=107	=107
4FF/	8eee-\L 8aa-\ 8ee-\	>
.	8ddd\J 8dd\	.
*clefG2	*	*
4f/ 4e-/ 4B-/	8ddd\L 8dd\	.
.	8ccc#X\J 8cc#X\	.
4a-/ 4f/ 4e-/	8ccc#\L 8cc#\	.
.	8cccn\J 8ccn\	]]
*clefF4	*	*
=108	=108	=108
4BBB-/	4ccc\ 4aa-\ 4ccW\	.
4d\ 4B-\ 4F\	4bb-\ 4b-\	.
4a-\ 4d\ 4B-\	4bb-\ 4b-\	.
=109	=109	=109
4FF/	8eee-\L 8aa-\ 8ee-\	>
.	8ddd\J 8dd\	.
4f\ 4e-\ 4B-\	8ddd\L 8dd\	.
.	8ccc#X\J 8cc#X\	.
4a-\ 4f\ 4e-\	8ccc#\L 8cc#\	.
.	8cccn\J 8ccn\	]]
=110	=110	=110
4BBB-/	4ccc\ 4aa-\ 4ccW\	.
4d\ 4B-\ 4F\	4bb-\ 4b-\	.
4a-\ 4d\ 4B-\	4bb-\ 4b-\	.
=111	=111	=111
4EE-/	8ccc\L 8gg\ 8cc\	.
.	8bbn\J 8bn\	.
4e-\ 4B-\ 4G\	8bb\L 8b\	.
.	8bb-X\J 8b-X\	.
4g\ 4e-\ 4B-\	8bb-\L 8b-\	.
.	8aan\J 8an\	.
!!LO:LB:g=original
=112	=112	=112
4BBB-/	8aan\L 8dd\ 8an\	.
.	8aa-X\J 8a-X\	.
4c\ 4A-\ 4F\	8aa-\L 8a-\	.
.	8gg\J 8g\	.
4d\ 4B-\ 4A-\	8gg\L 8g\	.
.	8ff\J 8f\	.
=113	=113	=113
4EE-/	8gg\L 8ee-\ 8g\	<
.	8aa-\J 8a-\	.
4e-\ 4B-\ 4G\	8aa-\L 8a-\	.
.	8aan\J 8an\	.
4g\ 4e-\ 4B-\	8aa\L 8a\	.
.	8bb-\J 8b-\	.
=114	=114	=114
4EEn/	8bb-\L 8gg\ 8b-\	.
.	8bbn\J 8bn\	.
4en\ 4d-X\ 4B-\ 4G\	8bb\L 8b\	.
.	8ccc\J 8cc\	.
4g\ 4e\ 4d-\ 4B-\	8ccc\L 8cc\	.
.	8ddd-X\J 8dd-X\	[
=115	=115	=115
4FF/	8ddd-X\L 8aa-\ 8dd-X\	>
.	8ccc\J 8cc\	.
4f\ 4c\ 4A-\	8ccc\L 8cc\	.
.	8bbn\J 8bn\	.
4a-\ 4f\ 4c\	8bb\L 8b\	.
.	8bb-X\J 8b-X\	]]
=116	=116	=116
4AA-/ 4AAA-/	4bb-\ 4ff\ 4b-W\	.
4c\ 4A-\ 4F\	4aa-\ 4a-\	.
4f\ 4c\ 4A-\	4aa-\ 4a-\	.
=117	=117	=117
4BBB-/	8gg\L 8ee-\ 8g\	.
.	8aa-\ 8a-\	.
4e-\ 4B-\ 4G\	8aa-\ 8a-\	.
.	8aan\ 8an\	.
4g\ 4e-\ 4B-\	8aa\ 8a\	.
.	8bb-\J 8b-\	.
!!LO:LB:g=original
=118	=118	=118
!	!LO:TX:b:t=cres-cen-do:ext2=cd:problem:dynamics with extention lines	!LO:HP:t=crescendo
4BBB-/	8bb-\L 8b-\	<
.	8bbn\ 8bn\	.
4en\ 4d-X\ 4B-\ 4G\	8bb\ 8b\	.
.	8ccc\ 8cc\	.
4g\ 4e\ 4d-\ 4B-\	8ccc\ 8cc\	.
.	8ddd-X\J 8dd-X\	.
=119	=119	=119
4BBB-/	8ddd-X\L 8dd-X\	.
.	8ccc\ 8cc\	.
4f\ 4c\ 4A-\	8ccc\ 8cc\	.
.	8bb-\ 8bn\	.
4a-\ 4f\ 4c\	8bb-\ 8b\	.
.	8ccc\J 8cc\	.
=120	=120	=120
4BBB-/	8ccc\L 8cc\	.
.	8ccc#X\ 8cc#X\	.
4f#X\ 4e-\ 4c\ 4An\	8ccc#\ 8cc#\	.
.	8ddd\ 8dd\	.
4an\ 4f#\ 4e-\ 4c\	8ddd\ 8dd\	.
.	8eee-\J 8ee-\	[
=121	=121	=121
4BBB-/	8eee-\L 8ee-\	<
.	8ddd\ 8dd\	.
*clefG2	*	*
4g/ 4d/ 4B-/	8ddd\ 8dd\	.
.	8ccc\ 8cc#X\	.
4b-/ 4g/ 4d/	8ccc\ 8cc#\	.
.	8ddd\J 8dd\	.
*clefF4	*	*
=122	=122	=122
4BBB-/	8ddd\L 8dd\	.
.	8eee-\ 8ee-\	.
*clefG2	*	*
4a-/ 4d/ 4B-/	8eee-\ 8ee-\	.
.	8eee-\ 8een\	.
4b-/ 4a-/ 4d/	8eee-\ 8ee\	.
.	8fff\J 8ff\	.
*clefF4	*	*
=123	=123	=123
4BBB-/	8fff\L 8ff\	.
.	8fff\ 8ff#X\	.
*clefG2	*	*
4a-/ 4e-/ 4B-/	8fff\ 8ff#\	.
.	8ggg\ 8gg\	.
4cc-X/ 4a-/ 4e-/	8ggg\ 8gg\	.
.	8aaa-\J 8aa-\	[
!!LO:PB:g=original
=124	=124	=124
*clefF4	*	*
*	*8va	*
4BBB-/	8aaa-\L 8aa-\	<
.	8aaan\ 8aan\	.
*clefG2	*	*
4b-/ 4a-/ 4d/ 4B-/	8aaa\ 8aa\	.
.	8bbb-\ 8bb-\	.
4r	8cccc\ 8ccc\	.
.	8dddd\J 8ddd\	.
*clefF4	*	*
=125	=125	=125
4EE-/ 4EEE-/	8eeee-\L 8ggg\ 8eee-\	.
.	8bbb-\ 8fff\	.
*clefG2	*	*
4b-/ 4g/ 4e-/ 4B-/	8ggg\ 8eee-\	.
.	8fff\ 8bb-\	.
4b-/ 4g/ 4e-/ 4B-/	8eee-\ 8gg\	.
.	8bb-\J 8ff\	.
=126	=126	=126
4bn/ 4g/ 4f/ 4e-/ 4Bn/	8gg\L 8ee-\	.
.	8bbn\ 8ff\	.
4r	8eee-\ 8gg\	.
.	8fff\ 8bb\	.
4r	8ggg\ 8eee-\	.
.	8bbbn\J 8fff\	.
*clefF4	*	*
=127	=127	=127
4EE-\ 4EEE-\	8eeee-\L 8ggg\	.
.	8bbb-\ 8fff\	.
*clefG2	*	*
4b-/ 4g/ 4e-/ 4B-/	8ggg\ 8eee-\	.
.	8fff\ 8bb-\	.
4b-/ 4g/ 4e-/ 4B-/	8eee-\ 8gg\	.
.	8bb-\J 8ff\	.
=128	=128	=128
2.bn/ 2.g/ 2.f/ 2.e-/ 2.Bn/	8gg\L 8ee-\	.
.	8bbn\ 8ff\	.
.	8eee-\ 8gg\	.
.	8fff\ 8bb\	.
.	8ggg\ 8eee-\	.
.	8bbbn\J 8fff\	.
*clefF4	*	*
=129	=129	=129
4EE-/	8eeee-\L 8ggg\	.
.	8bbb-\ 8fff\	.
*clefG2	*	*
4b-/ 4g/ 4e-/ 4B-/	8ggg\ 8eee-\	.
.	8fff\ 8bb-\	.
8ee-\L 8g\	8eee-\ 8gg\	.
!	!LO:TX:a:t=loco.	!
8b-\J	8bb-\J 8ff\	[[
*	*X8va	*
!!LO:LB:g=original
*clefF4	*	*
=130	=130	=130
4g\	8gg\L 8ee-\	.
.	8ff\ 8b-\	.
8e-\L	8ee-\ 8g\	.
8B-\J	8b-\ 8f\	.
4G\	8g\ 8e-\	.
.	8f\J 8B-\	.
=131	=131	=131
8E-\L	8e-</L 8G</	.
8BB-\J	8B-</ 8F</	.
4GG\	8G</ 8E-</	.
.	8F</ 8BB-</	.
8EE-\L	8E</ 8GG</	.
8BBB-\J	8BB-</J 8FF</	.
=132	=132	=132
!	!	!LO:DY:a
8EEE-\L	8GG</L 8EE-</	fff
8BBB-\	8BB-</ 8FF</	.
8EE-\	8E-</ 8GG</	.
8FF\	8F</ 8BB-</	.
8GG\	8G</ 8E-</	.
8BB-\J	8B-</J 8F</	.
=133	=133	=133
8E-\L	8e-\L 8G\	.
8F\	8f\ 8B-\	.
8G\	8g\ 8e-\	.
8B-\	8b-\ 8f\	.
8e-\	8ee-\ 8g\	.
8f\J	8ff\J 8b-\	.
*clefG2	*	*
=134	=134	=134
8g\L	8gg\L 8ee-\	.
8b-\	8bb-\ 8ff\	.
8ee-\	8eee-\ 8gg\	.
8ff\	8fff\ 8bb-\	.
*	*8va	*
8gg\	8ggg\ 8eee-\	.
8bb-\J	8bbb-\J 8fff\	.
=135	=135	=135
4eee-\	4gggg\ 4eeee-\ 4ggg\	.
*	*X8va	*
4r	4r	.
4r	4r	.
!!LO:LB:g=original
=136	=136	=136
4qqe-\ 4qqB-\ 4qqE-\	4qqgg\ 4qqee-\ 4qqg\	.
4e-\ 4B-\ 4E-\	4gg\ 4ee-\ 4g\	.
4r	4r	.
4r	4r	.
=137	=137	=137
4qqEE-/ 4qqEEE-/	4qqE-</	.
4EE-\ 4EEE-\	4E-</	.
4r	4ryy	.
!	!LO:TX:b:t=Fine (Stadtpark.)	!
4r	4ryy	.
==	==	==
*-	*-	*-
!!!system-decoration: [(s1,s2)]
!!!RDF**kern: > = above
!!!RDF**kern: < = below
!!!RDF**dynam: pp = pp.
!!!RDF**dynam: f = f.
!!!RDF**dynam: ff = ff.
!!!EED: Leszek Kubiak
!!!EST: 2021-05-21
!!!ENC: Tomasz Grochalski
!!!END: 2021-05-07
!!!RDF**kern: | = vertical stroke
